resources/svg/inbox-archive-line.svg

<svg fill="currentColor" viewBox="0 0 24 24" xmlns="http://www.w3.org/2000/svg"><path d="M20 3L22 7V20C22 20.5523 21.5523 21 21 21H3C2.44772 21 2 20.5523 2 20V7.00353L4 3H20ZM20 9H4V19H20V9ZM13 10V14H16L12 18L8 14H11V10H13ZM18.7639 5H5.23656L4.23744 7H19.7639L18.7639 5Z"/></svg>

<svg xmlns="http://www.w3.org/2000/svg" viewBox="0 0 24 24" fill="currentColor">
    <g>
        <path fill="none" d="M0 0h24v24H0z"/>
        <path d="M4 3h16l2 4v13a1 1 0 0 1-1 1H3a1 1 0 0 1-1-1V7.004L4 3zm16 6H4v10h16V9zm-.236-2l-1-2H5.237l-1 2h15.527zM13 14h3l-4 4-4-4h3v-4h2v4z"/>
    </g>
</svg>
